X: 12
T: O Belle dyane
N: Derived from Ano3004-O_Belle_dyane--Laborde.krn
C: Anonymous
%%abc-version 2.0
%%abcx-abcm2ps-target-version 5.9.1 (29 Sep 2008)
%%abc-creator hum2abc beta
%%abcx-conversion-date 2019/02/16 20:18:26
%%abc-edited-by Jesse Rodin
%%abc-edited-by Jesse Rodin 8/15/2013
%%abcx-initial-encoding-date 2013/08/15/
%%humdrum-veritas 2171308051
%%humdrum-veritas-data 3649151076
%%linebreak <none>
%%barnumbers 0
L: 1/4
M: 2/1
Q: 1/2=120
V: 1 clef=treble
V: 2 clef=treble-8
V: 3 clef=bass
K: C
[V:1] D8- | 
[V:2] d8- | 
[V:3] D,8- | 
[V:1] D4C4 | 
[V:2] d4A4 | 
[V:3] D,4F,4 | 
[V:1] D4E4 | 
[V:2] B4c4 | 
[V:3] D,4A,4 | 
[V:1] D4A4- | 
[V:2] d6c2 | 
[V:3] D,4F,4- | 
[V:1] A4G2A2 | 
[V:2] d4e4 | 
[V:3] F,4E,4 | 
[V:1] B2A2G2F2 | 
[V:2] d8 | 
[V:3] F,4D,4 | 
[V:1] E8 | 
[V:2] z4c4 | 
[V:3] A,8 | 
[V:1] z4A4 | 
[V:2] d4d4 | 
[V:3] D,8 | 
[V:1] A4A4 | 
[V:2] f4f4 | 
[V:3] D,4F,4 | 
[V:1] G4F4- | 
[V:2] e4d4- | 
[V:3] C,4D,4- | 
[V:1] F4E4 | 
[V:2] d4c4 | 
[V:3] D,4A,,4 | 
[V:1] D8 | 
[V:2] f8 | 
[V:3] D,3E,F,3G, | 
[V:1] C8 | 
[V:2] e8 | 
[V:3] A,8 | 
[V:1] E8 | 
[V:2] c8 | 
[V:3] A,8 | 
[V:1] E4E4 | 
[V:2] c4c4 | 
[V:3] A,4A,4 | 
[V:1] F4F4 | 
[V:2] d6c2 | 
[V:3] D,8 | 
[V:1] E4A4- | 
[V:2] A4c4 | 
[V:3] C,4A,,4 | 
[V:1] A2GFG4 | 
[V:2] B8 | 
[V:3] E,8 | 
[V:1] F4E4- | 
[V:2] A6G2 | 
[V:3] F,4C,4- | 
[V:1] E2D2D4- | 
[V:2] A4F4 | 
[V:3] C,2A,,2D,4 | 
[V:1] D2B,2^C4 | 
[V:2] E8 | 
[V:3] A,,8 | 
[V:1] D8 | 
[V:2] D8- | 
[V:3] z8 | 
[V:1] z8 | 
[V:2] D8 | 
[V:3] A,8 | 
[V:1] D8 | 
[V:2] z8 | 
[V:3] B,4G,4- | 
[V:1] B,8 | 
[V:2] z8 | 
[V:3] G,2F,2E,2D,2 | 
[V:1] C8 | 
[V:2] z8 | 
[V:3] E,4E,4 | 
[V:1] D8 | 
[V:2] d8 | 
[V:3] D,6G,2- | 
[V:1] z4D4 | 
[V:2] B8 | 
[V:3] G,2F,2G,2B,2 | 
[V:1] E4E4 | 
[V:2] c8 | 
[V:3] A,4A,4 | 
[V:1] F4F4 | 
[V:2] d8 | 
[V:3] D,8- | 
[V:1] F4E2D2 | 
[V:2] z4d4 | 
[V:3] D,8 | 
[V:1] C8 | 
[V:2] e4e4 | 
[V:3] A,,8 | 
[V:1] z8 | 
[V:2] f4f4 | 
[V:3] D,8 | 
[V:1] D8 | 
[V:2] f6ed | 
[V:3] z8 | 
[V:1] E4E4 | 
[V:2] c8 | 
[V:3] A,8 | 
[V:1] E6DC | 
[V:2] z8 | 
[V:3] A,4A,4 | 
[V:1] B,8 | 
[V:2] d8 | 
[V:3] G,8 | 
[V:1] A,8 | 
[V:2] e4e4 | 
[V:3] z4A,4 | 
[V:1] z4G4 | 
[V:2] e6dc | 
[V:3] E,4E,4 | 
[V:1] G4G4 | 
[V:2] B8 | 
[V:3] E,8 | 
[V:1] A6G2 | 
[V:2] A4d4- | 
[V:3] F,8 | 
[V:1] F2E2E4- | 
[V:2] d4c4 | 
[V:3] D,4A,4- | 
[V:1] E4A4 | 
[V:2] A6B2 | 
[V:3] A,2G,2F,4 | 
[V:1] G4c4- | 
[V:2] c6d2 | 
[V:3] E,4C,4 | 
[V:1] c2A2B4- | 
[V:2] e4d4- | 
[V:3] z4G,4- | 
[V:1] B2A2A4- | 
[V:2] d4c4 | 
[V:3] G,4A,4 | 
[V:1] A2^G^FG4 | 
[V:2] B8 | 
[V:3] E,8 | 
[V:1] A8- | 
[V:2] A8 | 
[V:3] F,4D,4- | 
[V:1] A8 | 
[V:2] z8 | 
[V:3] D,4C,4 | 
[V:1] z8 | 
[V:2] A8 | 
[V:3] D,4F,4 | 
[V:1] z8 | 
[V:2] c4c4 | 
[V:3] E,4E,4 | 
[V:1] A8 | 
[V:2] d8 | 
[V:3] D,8 | 
[V:1] c4c4 | 
[V:2] e8 | 
[V:3] A,8 | 
[V:1] d6c2 | 
[V:2] z4d4 | 
[V:3] D,8 | 
[V:1] A4A4 | 
[V:2] d8 | 
[V:3] z4D,4 | 
[V:1] B2A3GF2 | 
[V:2] d8 | 
[V:3] D,4D,4 | 
[V:1] E4G4 | 
[V:2] c8 | 
[V:3] E,4E,4 | 
[V:1] F4E2D2 | 
[V:2] d8 | 
[V:3] D,6C,B,, | 
[V:1] C6D2 | 
[V:2] e8 | 
[V:3] A,,8- | 
[V:1] E8 | 
[V:2] A8 | 
[V:3] A,,8- | 
[V:1] A,8 | 
[V:2] z4A4 | 
[V:3] A,,8 | 
[V:1] z8 | 
[V:2] A6GF | 
[V:3] z4A,4 | 
[V:1] z4G4 | 
[V:2] E4E4 | 
[V:3] B,4C4 | 
[V:1] A4A4 | 
[V:2] D4D4 | 
[V:3] D8 | 
[V:1] A6GF | 
[V:2] d4d4 | 
[V:3] D,8 | 
[V:1] E4E4 | 
[V:2] c8 | 
[V:3] A,8 | 
[V:1] F4D4 | 
[V:2] d4f4 | 
[V:3] D,8 | 
[V:1] C4D4 | 
[V:2] e4d4- | 
[V:3] A,,4B,,4 | 
[V:1] E8 | 
[V:2] d4c4 | 
[V:3] A,,8 | 
[V:1] D4G4 | 
[V:2] d4B4 | 
[V:3] D,4E,4 | 
[V:1] F4D4 | 
[V:2] A4d4- | 
[V:3] F,6D,2 | 
[V:1] E8 | 
[V:2] d4^c4 | 
[V:3] A,8 | 
[V:1] D4B,4 | 
[V:2] d4z4 | 
[V:3] z4D,4 | 
[V:1] A,4D4- | 
[V:2] D6E2 | 
[V:3] F,6G,2 | 
[V:1] D4^C4 | 
[V:2] F2G2E4 | 
[V:3] A,2_B,2G,4 | 
[V:1] D3EF2G2 | 
[V:2] D8 | 
[V:3] A,4z4 | 
[V:1] E4A4- | 
[V:2] A6B2 | 
[V:3] A,,4F,4 | 
[V:1] A2G2F2E2 | 
[V:2] c4d4 | 
[V:3] E,4D,4- | 
[V:1] F4E4- | 
[V:2] A4G4- | 
[V:3] D,2B,,2C,4- | 
[V:1] E2D2D4- | 
[V:2] G4F4 | 
[V:3] C,4D,4 | 
[V:1] D2B,2^C4 | 
[V:2] E8 | 
[V:3] A,,8 | 
[V:1] D8 ||  
[V:2] D8 ||  
[V:3] A,8 ||  
[V:1]  [K:C] [K:clef=treble][M:2/1]D8 | 
[V:2]  [K:C] [K:clef=treble-8][M:2/1]d6c2 | 
[V:3]  [K:C] [K:clef=bass][M:2/1]D,8- | 
[V:1] F8 | 
[V:2] A6B2 | 
[V:3] D,8 | 
[V:1] E8 | 
[V:2] c8 | 
[V:3] A,8 | 
[V:1] D6C2 | 
[V:2] d8 | 
[V:3] _B,6A,2 | 
[V:1] A,4B,4 | 
[V:2] f8 | 
[V:3] F,4D,4 | 
[V:1] C8 | 
[V:2] e8 | 
[V:3] A,8 | 
[V:1] z4D4 | 
[V:2] d8 | 
[V:3] D,8- | 
[V:1] F4F4 | 
[V:2] z4d4 | 
[V:3] D,8 | 
[V:1] E4G4- | 
[V:2] c6d2 | 
[V:3] A,,4E,4- | 
[V:1] G4F4 | 
[V:2] e4f4- | 
[V:3] E,4D,4 | 
[V:1] A8 | 
[V:2] f2d2f4 | 
[V:3] F,8 | 
[V:1] G4F4 | 
[V:2] e4d4- | 
[V:3] C,4D,4 | 
[V:1] E8 | 
[V:2] d4^c4 | 
[V:3] A,8 | 
[V:1] D8 | 
[V:2] d4D4 | 
[V:3] D,4F,4 | 
[V:1] C4A,4 | 
[V:2] E4F4 | 
[V:3] G,4A,4 | 
[V:1] B,8 | 
[V:2] G8 | 
[V:3] E,8 | 
[V:1] A,8 | 
[V:2] A8 | 
[V:3] A,,8 | 
[V:1] z8 | 
[V:2] z8 | 
[V:3] z8 | 
[V:1] A8 | 
[V:2] c8 | 
[V:3] F,8 | 
[V:1] G4G4 | 
[V:2] B4B4 | 
[V:3] G,4G,4 | 
[V:1] c8 | 
[V:2] A4A4 | 
[V:3] A,4C4 | 
[V:1] B4G4 | 
[V:2] G4G4 | 
[V:3] D8 | 
[V:1] A2G2F2E2 | 
[V:2] c8 | 
[V:3] A,8 | 
[V:1] D8 | 
[V:2] z4d4 | 
[V:3] _B,8 | 
[V:1] z4C4 | 
[V:2] e4e4 | 
[V:3] A,8 | 
[V:1] D4F4 | 
[V:2] f6e2 | 
[V:3] D,8 | 
[V:1] E4E4 | 
[V:2] c8- | 
[V:3] A,8- | 
[V:1] A8 | 
[V:2] c4d4 | 
[V:3] A,4D,4 | 
[V:1] G4F4- | 
[V:2] B4A4- | 
[V:3] E,4A,,4 | 
[V:1] F2E2E4- | 
[V:2] A4G4 | 
[V:3] D,4E,4 | 
[V:1] E2C2D4 | 
[V:2] A4B4 | 
[V:3] F,4D,4 | 
[V:1] E8- | 
[V:2] c6B2 | 
[V:3] C,6D,2 | 
[V:1] E4C4 | 
[V:2] G4c4- | 
[V:3] E,6C,2 | 
[V:1] D8 | 
[V:2] c2A2B4 | 
[V:3] G,8 | 
[V:1] C8 | 
[V:2] c8- | 
[V:3] C,8- | 
[V:1] z4E4 | 
[V:2] c4G4- | 
[V:3] C,8 | 
[V:1] D4G4- | 
[V:2] G4B4 | 
[V:3] G,8 | 
[V:1] G4F4 | 
[V:2] A8 | 
[V:3] D,8 | 
[V:1] G4A4 | 
[V:2] G4c4- | 
[V:3] E,4F,4 | 
[V:1] G4c4- | 
[V:2] c4e4 | 
[V:3] E,4C,4 | 
[V:1] c4B4 | 
[V:2] d8 | 
[V:3] G,8 | 
[V:1] c6B2 | 
[V:2] c6d2 | 
[V:3] A,6B,2 | 
[V:1] G4A4 | 
[V:2] e4f4 | 
[V:3] C4F,4 | 
[V:1] B4A4- | 
[V:2] d6c2 | 
[V:3] G,4D,4- | 
[V:1] A2G2F4 | 
[V:2] A4d4- | 
[V:3] D,4D,4 | 
[V:1] E8 | 
[V:2] d4^c4 | 
[V:3] A,8 | 
[V:1] D4F4 | 
[V:2] d8 | 
[V:3] D,8 | 
[V:1] G4A4- | 
[V:2] e4c4 | 
[V:3] z8 | 
[V:1] A4G4 | 
[V:2] B8 | 
[V:3] E,8 | 
[V:1] c4B4- | 
[V:2] A4G4 | 
[V:3] F,4G,4 | 
[V:1] B2A2A4- | 
[V:2] c8 | 
[V:3] A,4F,4 | 
[V:1] A4G4 | 
[V:2] _B8 | 
[V:3] G,8 | 
[V:1] A8- | 
[V:2] A4d4 | 
[V:3] D,8 | 
[V:1] A8 | 
[V:2] c4d4 | 
[V:3] F,8 | 
[V:1] G8 | 
[V:2] e4c4 | 
[V:3] E,8 | 
[V:1] F8- | 
[V:2] d6c2 | 
[V:3] D,8- | 
[V:1] F8 | 
[V:2] A4d4- | 
[V:3] D,8 | 
[V:1] E8 | 
[V:2] d4^c4 | 
[V:3] A,8 | 
[V:1] D8 |]  
[V:2] d8 |]  
[V:3] D,8 |]  



